graphics/header-github-icon.svg

<?xml version="1.0" encoding="UTF-8"?>
<svg width="22px" height="22px" viewBox="0 0 22 22" version="1.1" xmlns="http://www.w3.org/2000/svg" xmlns:xlink="http://www.w3.org/1999/xlink">
    <!-- Generator: Sketch 54.1 (76490) - https://sketchapp.com -->
    <title>icon color</title>
    <desc>Created with Sketch.</desc>
    <defs>
        <path d="M11,0.755 C5.83782658,0.744458001 1.43373332,4.48781621 0.612333083,9.58423134 C-0.209067158,14.6806465 2.79591426,19.6181413 7.7,21.23 C8.225,21.305 8.45,21.005 8.45,20.705 L8.45,18.905 C5.525,19.505 4.925,17.48 4.925,17.48 C4.74021975,16.8404039 4.30843468,16.3006726 3.725,15.98 C2.75,15.305 3.8,15.305 3.8,15.305 C4.46064404,15.3885536 5.04377978,15.7773107 5.375,16.355 C6.00168841,17.4197233 7.34813268,17.8138046 8.45,17.255 C8.50152613,16.715705 8.74035844,16.2115035 9.125,15.83 C6.8,15.53 4.325,14.63 4.325,10.655 C4.30428167,9.60678343 4.6791714,8.5892256 5.375,7.805 C5.07890906,6.88887514 5.10537649,5.89899346 5.45,5 C5.45,5 6.35,4.7 8.3,6.05 C9.15468758,5.81004012 10.0373112,5.68395104 10.925,5.675 C11.8126888,5.68395104 12.6953124,5.81004012 13.55,6.05 C15.575,4.73 16.4,5 16.4,5 C16.8238079,5.87095166 16.8511451,6.88242799 16.475,7.775 C17.1828352,8.55198523 17.5595524,9.57450356 17.525,10.625 C17.525,14.675 15.05,15.575 12.725,15.8 C13.2479264,16.3091825 13.5219467,17.0216355 13.475,17.75 L13.475,20.6 C13.475,20.9 13.7,21.2 14.225,21.125 C18.5654007,19.8051965 21.5237788,15.7915619 21.5,11.255 C21.5,5.45601013 16.7989899,0.755 11,0.755 Z" id="path-1"></path>
    </defs>
    <g id="Page-1" stroke="none" stroke-width="1" fill="none" fill-rule="evenodd">
        <g id="Artboard" transform="translate(-1343.000000, -21.000000)">
            <g id="icon/social/github/24" transform="translate(1343.000000, 21.000000)">
                <mask id="mask-2" fill="white">
                    <use xlink:href="#path-1"></use>
                </mask>
                <use id="icon-color" fill="#000000" xlink:href="#path-1"></use>
            </g>
        </g>
    </g>
</svg>

<svg width="22" height="22" xmlns="http://www.w3.org/2000/svg" xmlns:xlink="http://www.w3.org/1999/xlink"><defs><path d="M11 .755A10.5 10.5 0 007.7 21.23c.525.075.75-.225.75-.525v-1.8c-2.925.6-3.525-1.425-3.525-1.425a2.505 2.505 0 00-1.2-1.5c-.975-.675.075-.675.075-.675.66.084 1.244.472 1.575 1.05a2.34 2.34 0 003.075.9c.052-.54.29-1.043.675-1.425-2.325-.3-4.8-1.2-4.8-5.175a4.17 4.17 0 011.05-2.85A4.215 4.215 0 015.45 5s.9-.3 2.85 1.05c.855-.24 1.737-.366 2.625-.375.888.009 1.77.135 2.625.375C15.575 4.73 16.4 5 16.4 5a3.36 3.36 0 01.075 2.775 4.035 4.035 0 011.05 2.85c0 4.05-2.475 4.95-4.8 5.175.523.51.797 1.222.75 1.95v2.85c0 .3.225.6.75.525a10.26 10.26 0 007.275-9.87c0-5.799-4.701-10.5-10.5-10.5z" id="a"/></defs><use fill="#000" xlink:href="#a" fill-rule="evenodd"/></svg>
